X: 23513
T: Libby Bird Song
R: mazurka
M: 3/4
K: Cmajor
|:eg|a^g a=g ag|ec c2 c2|GB df ed|e2 c2 eg|
a^g a=g ag|ec c2 c2|GB dg gf|e2 c2:|
|:G2|AG FA GF|EC C2 C2|G,B, DB, DB,|G,C EC EC|
AG FA GF|EC C2 C2|G,B, B,G GB,|C4:|
|:Gc|e2 eg ed|c4 Bc|dd dc BA|A2 G2 Gc|
e3 g ed|c4 BA|GB Bg gB|c4:|

